src/components/icon/assets/bell.svg

<svg xmlns="http://www.w3.org/2000/svg" xmlns:xlink="http://www.w3.org/1999/xlink" width="16" height="16" viewBox="0 0 16 16">
  <defs>
    <path id="bell-a" d="M2.31646443,12 L12.6836362,12 C12.4964159,11.2964546 12.4037706,10.3089281 12.336033,8.9634913 C12.2664257,7.58091744 12.232924,7.07529429 12.1458783,6.35085462 C12.117581,6.11534983 12.085766,5.88907001 12.0498803,5.67021349 C11.7398351,3.77933885 10.5442929,2.74814708 8.34205264,2.53962274 C8.44202035,2.38395134 8.49999995,2.1987466 8.49999995,2 C8.49999995,1.44771525 8.0522847,1 7.49999996,1 C6.94771521,1 6.49999996,1.44771525 6.49999996,2 C6.49999996,2.19875514 6.55798454,2.38396726 6.65796017,2.53964282 C4.45594546,2.74825739 3.26051448,3.77943998 2.95048592,5.67021349 C2.91460001,5.88907116 2.88278327,6.11535275 2.85448266,6.35086072 C2.76743966,7.07520286 2.73393177,7.58064011 2.66426105,8.96319272 C2.59645331,10.3087762 2.50374824,11.296399 2.31646443,12 Z M13.158645,13 L1.84138084,13 C1.53255249,13.3532355 1.10418166,13.5 0.499999997,13.5 C0.223857624,13.5 7.91033905e-14,13.2761424 8.2600593e-14,13 C8.61533067e-14,12.7238576 0.223857624,12.5 0.499999997,12.5 C1.28610027,12.5 1.52422506,11.7169006 1.66552836,8.91286377 C1.73641878,7.50610729 1.77081866,6.98721524 1.86162562,6.23155072 C1.89158283,5.98225704 1.92538416,5.74186107 1.96366374,5.50840508 C2.29841112,3.46687871 3.51012637,2.19469978 5.52001924,1.71593129 C5.65794768,0.745902262 6.49186641,-3.28626015e-14 7.49999996,-3.28626015e-14 C8.50810221,-3.28626015e-14 9.34200048,0.745855971 9.47996782,1.71584099 C11.4900875,2.19453979 12.701934,3.46675034 13.0367025,5.50840508 C13.0749825,5.74186401 13.1087826,5.98226229 13.1387368,6.23155682 C13.2295478,6.98733325 13.2639417,7.50642113 13.334768,8.91320883 C13.4759302,11.7170414 13.7139774,12.5 14.5,12.5 C14.7761424,12.5 15,12.7238576 15,13 C15,13.2761424 14.7761424,13.5 14.5,13.5 C13.8958084,13.5 13.4674478,13.3532386 13.158645,13 Z M5.49999997,14 L9.49999994,14 C9.49999994,15.1045695 8.60456945,16 7.49999996,16 C6.39543046,16 5.49999997,15.1045695 5.49999997,14 Z"/>
  </defs>
  <g fill="none" fill-rule="evenodd">
    <mask id="bell-b" fill="#fff">
      <use xlink:href="#bell-a"/>
    </mask>
    <use fill="#979797" fill-rule="nonzero" xlink:href="#bell-a"/>
    <g fill="#343741" mask="url(#bell-b)">
      <rect width="16" height="16"/>
    </g>
  </g>
</svg>

<svg xmlns="http://www.w3.org/2000/svg" xmlns:xlink="http://www.w3.org/1999/xlink" width="16" height="16">
  <defs>
    <path id="a" d="M5.5 14h4a2 2 0 1 1-4 0zm7.659-1H1.84c-.308.353-.737.5-1.341.5a.5.5 0 1 1 0-1c.786 0 1.024-.783 1.166-3.587.07-1.407.105-1.926.196-2.681.03-.25.063-.49.102-.724.334-2.041 1.546-3.313 3.556-3.792a2 2 0 0 1 3.96 0c2.01.479 3.222 1.75 3.557 3.792a17 17 0 0 1 .102.724c.09.755.125 1.274.196 2.681.14 2.804.379 3.587 1.165 3.587a.5.5 0 1 1 0 1c-.604 0-1.033-.147-1.341-.5zM2.316 12h10.368c-.188-.704-.28-1.691-.348-3.037-.07-1.382-.103-1.888-.19-2.612-.028-.236-.06-.462-.096-.68-.31-1.892-1.506-2.923-3.708-3.131a1 1 0 1 0-1.684 0c-2.202.208-3.397 1.24-3.708 3.13a16.01 16.01 0 0 0-.096.68c-.087.725-.12 1.23-.19 2.613-.068 1.346-.16 2.333-.348 3.037z"/>
  </defs>
  <use xlink:href="#a"/>
</svg>
